X: 42
M:C|
L:1/8
K:C
uc"^Segno"|\
vGcEc Dddc | GcEc GcEc | FcEc DddB | cG"4"AF EccA |
 GcEc Dddc | GcEc GcEc | FcEc DddB | cG"4"AF Ecc H|]
uf|\
v"0"ecgc "4"eddf | "0"ecgc acgc | fage dcd"4"e | \
 "0"ecgc "4"eddf | "0"ecgc acgc | fage dcd"4"e | \


